X: 26
M: 2/4
L: 1/16
K: D
((3A,B,C) |\
agfa gfeg | fedf edcA | dcdf edeg | fedf e2fg |
agfa gfeg | fedf edcA | dcdA BdAG | FEDC D4 :|


